X:1
T:Easter Visits Earth Again
T:Easter Visits Earth Again
T:Charles H. Maskell
T:Eliza Edmunds Hewitt, 1916
T:Public Domain Courtesy of the Cyber Hymnal™
T:Public Domain Courtesy of the Cyber Hymnal™
C:Charles H. Maskell
Z:Public Domain
Z:Courtesy of the Cyber Hymnal™
%%score ( 1 2 ) 3
L:1/8
Q:1/4=100
M:3/4
K:Bb
V:1 treble 
V:2 treble 
V:3 bass 
V:1
 DF [DFc]2 [DFB]2 | B>A [EA]4 | FA [Fc]2 [Fe]2 | [Fd]6 | DF [DFc]2 [DFB]2 | B>A [FA]4 | %6
w: 1.~East- er vi- sits|earth a- gain,|In the sol- emn|spring;|Blos- soms bright- en|hill and glen,|
w: 2.~Ev- ery flower that|lifts its head,|Breathes a mes- sage|bright;|He is ris- en|from the dead;|
w: 3.~Tell the sto- ry|of the spring|With tri- umph- ant|voice:|Je- sus reigns, ex-|alt- ed King,|
 c>G [_EG]2 A>B | [Ec]6 ||"^Refrain" [Fdf]2 [Fcf]2 [FBf]2 | [EBe]>[EAe] [Ece]4 | %10
w: Notes of joy sweet- ly|ring.|||
w: Hap- py day, day of|light!|Hail Him, vic-|tor- i- ous,|
w: In His grace, we re-|joice.|||
 [EAe]>[EGe] [EGe]4 | [EGe]>[DFd] [DFd]4 | [EG]2 [EG]2 [EA]2 | [FB]>[FB] [FB]4 | %14
w: ||||
w: King of love,|throned a- bove;|Tell the news|o’er and o’er,|
w: ||||
 [=Ec]>[Ec] [Ec]2 [Ed]2 | [Fc]6 | [Fdf]2 [Fcf]2 [FBf]2 | [EBe]>[EAe] [EAe]4 | [EAe]>[EGe] [EGe]4 | %19
w: |||||
w: While the years go|by:|Make His praise|glor- i- ous;|Sing a- gain,|
w: |||||
 [EGe]>[DFd] [DFd]4 | [B,FB]2 [B,FB]2 [B,FA]2 | [B,EG]>[EG] [EGe]2 [EG]2 | %22
w: |||
w: earth and sky;|Tell the news|ev- er- more, Our|
w: |||
 [B,DF]>[DF] [Fd]2 [Ec]2 | ([DFB]4 [Bdfb]2) |] %24
w: ||
w: Je- sus lives on|high. *|
w: ||
V:2
 x6 | E2 x4 | x6 | x6 | x6 | F2 x4 | =E2 x/ =E2 x3/2 | x6 || x6 | x6 | x6 | x6 | x6 | x6 | x6 | %15
 x6 | x6 | x6 | x6 | x6 | x6 | x6 | x6 | x6 |] %24
V:3
 B,,2 [F,B,]2 [F,B,]2 | C,2 ([F,A,]2 [F,A,]2) | [F,,F,]2 [F,A,C]2 [F,A,C]2 | %3
 (B,,2 [F,B,D]2 [F,B,D]2) | B,,2 [F,B,]2 [F,B,]2 | C,2 ([F,A,]2 [F,A,]2) | C,2 [G,B,]2 [G,B,]2 | %7
 ([F,,F,]2 [F,A,]2 [F,A,CE]2) || (B,,F,) (B,D) (B,F,) | C,F, (A,CA,F,) | F,,C, (F,A,F,C,) | %11
 B,,F, (B,DB,F,) | (E,G,) (B,E) (B,G,) | D,F, (B,DB,F,) | C,G, (B,C) (B,G,) | (F,G,F,E,D,C,) | %16
 (B,,F,) (B,D) (B,F,) | C,F, (A,CA,F,) | F,,E, (F,A,F,C,) | B,,F, (B,DB,F,) | %20
 [D,,D,]2 [D,F,]2 [D,F,]2 | [E,,E,]2 [E,B,]2 [E,B,]2 | [F,,F,]2 [F,B,]2 [F,A,]2 | %23
 ([B,,B,]2 [F,,F,]2 [B,,,B,,]2) |] %24

